X:6
T:Brendan McMahon's
M:2/2
L:1/8
R:Reel
Z:Rob Greenway
S:Rob Greenway IrishTradAccord 2005-5-13
K:EDor
B3B BAFB|A2FA DAFA|B3B BAFB|ABde fedc|
B3B BAFB|A2FA DAFA|G3E F2dB|AFDE FEE2:|
|:G3F GBdB|A2FA DAFA|G3F GBdB|AFDE FEEF|
G3F GBdB|A2FA DAFA|G3E F2dB|AFDE FEE2:||
